packages/dnb-ui-lib/assets/icons/compose_medium.svg

<svg width="24" height="25" viewBox="0 0 24 25" fill="none" xmlns="http://www.w3.org/2000/svg">
<path d="M18.75 14.251V21.751C18.75 22.1488 18.592 22.5304 18.3106 22.8117C18.0293 23.093 17.6478 23.251 17.25 23.251H2.25C1.85217 23.251 1.47064 23.093 1.18934 22.8117C0.908035 22.5304 0.75 22.1488 0.75 21.751V6.75101C0.75 6.35319 0.908035 5.97165 1.18934 5.69035C1.47064 5.40905 1.85217 5.25101 2.25 5.25101H9.74999M21.53 5.65201L22.591 4.59101C22.7999 4.38208 22.9657 4.13404 23.0787 3.86105C23.1918 3.58807 23.25 3.29549 23.25 3.00001C23.25 2.70454 23.1918 2.41195 23.0787 2.13897C22.9657 1.86599 22.7999 1.61795 22.591 1.40901C22.3821 1.20008 22.134 1.03435 21.861 0.921272C21.588 0.808198 21.2955 0.75 21 0.75C20.4032 0.75 19.8309 0.987054 19.409 1.40901L18.348 2.47001M21.53 5.65201L13.045 14.137L9.33299 14.668L9.86299 10.955L18.348 2.47001M21.53 5.65201L18.348 2.47001" stroke="black" stroke-width="1.5" stroke-linecap="round" stroke-linejoin="round"/>
</svg>

<svg width="24" height="24" viewBox="0 0 24 25" fill="none" xmlns="http://www.w3.org/2000/svg"><path d="M18.75 14.251v7.5a1.5 1.5 0 01-1.5 1.5h-15a1.5 1.5 0 01-1.5-1.5v-15a1.5 1.5 0 011.5-1.5h7.5m11.78.401l1.061-1.061a2.25 2.25 0 10-3.182-3.182L18.348 2.47m3.182 3.182l-8.485 8.485-3.712.531.53-3.713 8.485-8.485m3.182 3.182L18.348 2.47" stroke="#000" stroke-width="1.5" stroke-linecap="round" stroke-linejoin="round"/></svg>
